X:135
T:The Head Road Reel
R:reel
C:Bruce Osborne - March 2002
Z:bosborne@kos.net
M:2/4
L:1/16
K:D
FG|AFDE FAde|fafd A2ef|gecA EAce|dcdB A2FG|
AFDE FAde|fafd A2ef|gecA EAce|(3dcd fe d2:|
|:FG|Adcd BdAF|DFAc d2cd|eAAA eAfA|gAfA e2FG|
Adcd BdAF|DFAc d2cd|eAAA eAfA|(3gfe ce d2:|
